images/DLB.svg

<svg height="250" viewBox="0 0 250 250" width="250" xmlns="http://www.w3.org/2000/svg"><path d="m0 125v125h250v-250h-250zm114.5-67.800781v7.152343l5.648438.296876c4.953124.300781 13 1.351562 16.25 2.203124l1.101562.25v-17.101562h26v28.75l4.648438 4.800781c7.050781 7.347657 11.550781 15.648438 13.902343 25.898438 1.449219 6.199219 1.847657 20.101562.75 26.75-1.949219 11.75-7.199219 22-15.550781 30.300781l-3.75 3.699219v30.300781h-26v-17.148438l-1.601562.398438c-5.847657 1.25-9.898438 1.800781-15.25 2.101562l-6.148438.296876v14.351562l-12.851562-.101562-12.898438-.148438-.148438-7.148438-.152343-7.101562h-17.449219l.101562-60.800781.148438-60.800781 8.648438.101562 8.601562.050781v-7.199219c0-3.953124.101562-7.300781.199219-7.402343.101562-.097657 5.949219-.148438 13-.050781l12.800781.152343zm0 0" fill="#6720e0"/><path d="m98.25 89.550781c-.148438.398438-.199219 16.648438-.148438 36.199219l.148438 35.5 10.75-.050781c15.050781-.148438 22.300781-1.449219 30.199219-5.597657 6.851562-3.601562 12.800781-11.25 15.050781-19.351562 1.199219-4.5 1.550781-15.601562.550781-20.148438-2.75-13-12.75-22.101562-28.199219-25.652343-5.75-1.347657-27.902343-2.050781-28.351562-.898438zm0 0" fill="#6720e0"/><path d="m87.5 56.25v7.25h-17v123.5h17v14.5h28v-14.351562l5.898438-.347657c3.203124-.152343 7.953124-.75 10.5-1.25l4.601562-.902343v16.851562h28v-30.648438l4.148438-4.300781c10.953124-11.402343 15.851562-24.101562 15.851562-41.199219 0-18.800781-5.550781-33.25-16.898438-44l-3.101562-2.902343v-29.449219h-28v16.800781l-5.101562-.902343c-2.847657-.449219-7.546876-1-10.5-1.199219l-5.398438-.347657v-14.351562h-28zm38.199219 34.949219c11.75 2.699219 19.699219 7.902343 24.449219 15.851562 2.851562 4.800781 3.953124 8.800781 4.25 15.347657.402343 9.851562-1.5 17.402343-6.097657 23.851562-7.152343 10-19.652343 14.25-41.902343 14.25h-7.398438v-70.648438l11.648438.296876c7.902343.203124 12.703124.550781 15.050781 1.050781zm0 0" fill="#fff"/></svg>

<svg xmlns="http://www.w3.org/2000/svg" xmlns:xlink="http://www.w3.org/1999/xlink" width="250px" height="250px" viewBox="0 0 250 250" version="1.1">
<g id="surface1">
<path style=" stroke:none;fill-rule:nonzero;fill:rgb(40.392157%,12.54902%,87.843138%);fill-opacity:1;" d="M 0 125 L 0 250 L 250 250 L 250 0 L 0 0 Z M 114.5 57.199219 L 114.5 64.351562 L 120.148438 64.648438 C 125.101562 64.949219 133.148438 66 136.398438 66.851562 L 137.5 67.101562 L 137.5 50 L 163.5 50 L 163.5 78.75 L 168.148438 83.550781 C 175.199219 90.898438 179.699219 99.199219 182.050781 109.449219 C 183.5 115.648438 183.898438 129.550781 182.800781 136.199219 C 180.851562 147.949219 175.601562 158.199219 167.25 166.5 L 163.5 170.199219 L 163.5 200.5 L 137.5 200.5 L 137.5 183.351562 L 135.898438 183.75 C 130.050781 185 126 185.550781 120.648438 185.851562 L 114.5 186.148438 L 114.5 200.5 L 101.648438 200.398438 L 88.75 200.25 L 88.601562 193.101562 L 88.449219 186 L 71 186 L 71.101562 125.199219 L 71.25 64.398438 L 79.898438 64.5 L 88.5 64.550781 L 88.5 57.351562 C 88.5 53.398438 88.601562 50.050781 88.699219 49.949219 C 88.800781 49.851562 94.648438 49.800781 101.699219 49.898438 L 114.5 50.050781 Z M 114.5 57.199219 "/>
<path style=" stroke:none;fill-rule:nonzero;fill:rgb(40.392157%,12.54902%,87.843138%);fill-opacity:1;" d="M 98.25 89.550781 C 98.101562 89.949219 98.050781 106.199219 98.101562 125.75 L 98.25 161.25 L 109 161.199219 C 124.050781 161.050781 131.300781 159.75 139.199219 155.601562 C 146.050781 152 152 144.351562 154.25 136.25 C 155.449219 131.75 155.800781 120.648438 154.800781 116.101562 C 152.050781 103.101562 142.050781 94 126.601562 90.449219 C 120.851562 89.101562 98.699219 88.398438 98.25 89.550781 Z M 98.25 89.550781 "/>
<path style=" stroke:none;fill-rule:nonzero;fill:rgb(100%,100%,100%);fill-opacity:1;" d="M 87.5 56.25 L 87.5 63.5 L 70.5 63.5 L 70.5 187 L 87.5 187 L 87.5 201.5 L 115.5 201.5 L 115.5 187.148438 L 121.398438 186.800781 C 124.601562 186.648438 129.351562 186.050781 131.898438 185.550781 L 136.5 184.648438 L 136.5 201.5 L 164.5 201.5 L 164.5 170.851562 L 168.648438 166.550781 C 179.601562 155.148438 184.5 142.449219 184.5 125.351562 C 184.5 106.550781 178.949219 92.101562 167.601562 81.351562 L 164.5 78.449219 L 164.5 49 L 136.5 49 L 136.5 65.800781 L 131.398438 64.898438 C 128.550781 64.449219 123.851562 63.898438 120.898438 63.699219 L 115.5 63.351562 L 115.5 49 L 87.5 49 Z M 125.699219 91.199219 C 137.449219 93.898438 145.398438 99.101562 150.148438 107.050781 C 153 111.851562 154.101562 115.851562 154.398438 122.398438 C 154.800781 132.25 152.898438 139.800781 148.300781 146.25 C 141.148438 156.25 128.648438 160.5 106.398438 160.5 L 99 160.5 L 99 89.851562 L 110.648438 90.148438 C 118.550781 90.351562 123.351562 90.699219 125.699219 91.199219 Z M 125.699219 91.199219 "/>
</g>
</svg>
